src/cmd/32/spelling.svg

<?xml version="1.0" encoding="UTF-8" standalone="no"?>
<svg
   xmlns:dc="http://purl.org/dc/elements/1.1/"
   xmlns:cc="http://creativecommons.org/ns#"
   xmlns:rdf="http://www.w3.org/1999/02/22-rdf-syntax-ns#"
   xmlns:svg="http://www.w3.org/2000/svg"
   xmlns="http://www.w3.org/2000/svg"
   xmlns:sodipodi="http://sodipodi.sourceforge.net/DTD/sodipodi-0.dtd"
   xmlns:inkscape="http://www.inkscape.org/namespaces/inkscape"
   viewBox="0 0 32 32"
   version="1.1"
   id="svg6"
   sodipodi:docname="spelling.svg"
   inkscape:version="0.92.4 (5da689c313, 2019-01-14)">
  <metadata
     id="metadata12">
    <rdf:RDF>
      <cc:Work
         rdf:about="">
        <dc:format>image/svg+xml</dc:format>
        <dc:type
           rdf:resource="http://purl.org/dc/dcmitype/StillImage" />
      </cc:Work>
    </rdf:RDF>
  </metadata>
  <defs
     id="defs10" />
  <sodipodi:namedview
     pagecolor="#ffffff"
     bordercolor="#666666"
     borderopacity="1"
     objecttolerance="10"
     gridtolerance="10"
     guidetolerance="10"
     inkscape:pageopacity="0"
     inkscape:pageshadow="2"
     inkscape:window-width="1920"
     inkscape:window-height="1011"
     id="namedview8"
     showgrid="true"
     inkscape:zoom="14.75"
     inkscape:cx="21.045218"
     inkscape:cy="7.7052438"
     inkscape:window-x="1920"
     inkscape:window-y="32"
     inkscape:window-maximized="1"
     inkscape:current-layer="svg6">
    <inkscape:grid
       type="xygrid"
       id="grid822" />
  </sodipodi:namedview>
  <path
     d="M 15,3 6,23 h 2 l 3.392578,-7 H 16 20.607422 L 24,23 h 2 L 17,3 H 16 Z M 16,5.4023438 19.849609,14 H 16 12.150391 Z"
     id="path2"
     inkscape:connector-curvature="0"
     style="fill:#232629"
     sodipodi:nodetypes="cccccccccccscccs" />
  <path
     style="color:#000000;font-style:normal;font-variant:normal;font-weight:normal;font-stretch:normal;font-size:medium;line-height:normal;font-family:sans-serif;font-variant-ligatures:normal;font-variant-position:normal;font-variant-caps:normal;font-variant-numeric:normal;font-variant-alternates:normal;font-feature-settings:normal;text-indent:0;text-align:start;text-decoration:none;text-decoration-line:none;text-decoration-style:solid;text-decoration-color:#000000;letter-spacing:normal;word-spacing:normal;text-transform:none;writing-mode:lr-tb;direction:ltr;text-orientation:mixed;dominant-baseline:auto;baseline-shift:baseline;text-anchor:start;white-space:normal;shape-padding:0;clip-rule:nonzero;display:inline;overflow:visible;visibility:visible;opacity:1;isolation:auto;mix-blend-mode:normal;color-interpolation:sRGB;color-interpolation-filters:linearRGB;solid-color:#000000;solid-opacity:1;vector-effect:none;fill:#c7162b;fill-opacity:1;fill-rule:nonzero;stroke:none;stroke-width:1px;stroke-linecap:butt;stroke-linejoin:miter;stroke-miterlimit:4;stroke-dasharray:none;stroke-dashoffset:0;stroke-opacity:1;color-rendering:auto;image-rendering:auto;shape-rendering:auto;text-rendering:auto;enable-background:accumulate"
     d="m 7,25 c -0.416667,0 -0.7662926,0.237521 -0.9785156,0.492188 -0.212222,0.254666 -0.34375,0.535156 -0.46875,0.785156 -0.125,0.25 -0.243472,0.46951 -0.34375,0.589844 C 5.1087074,26.987521 5.083333,27 5,27 v 1 c 0.416667,0 0.7662926,-0.237521 0.9785156,-0.492188 0.212222,-0.254666 0.34375,-0.535156 0.46875,-0.785156 0.125,-0.25 0.243472,-0.46951 0.34375,-0.589844 C 6.8912926,26.012479 6.916667,26 7,26 c 0.08333,0 0.1087074,0.01248 0.2089844,0.132812 0.100278,0.120334 0.21875,0.339844 0.34375,0.589844 0.125,0.25 0.256528,0.53049 0.46875,0.785156 C 8.2337074,27.762479 8.583333,28 9,28 c 0.416667,0 0.7662926,-0.237521 0.9785156,-0.492188 0.2122224,-0.254666 0.3437504,-0.535156 0.4687504,-0.785156 0.125,-0.25 0.243472,-0.46951 0.34375,-0.589844 C 10.891293,26.012479 10.916667,26 11,26 c 0.08333,0 0.108707,0.01248 0.208984,0.132812 0.100278,0.120334 0.21875,0.339844 0.34375,0.589844 0.125,0.25 0.256528,0.53049 0.46875,0.785156 C 12.233707,27.762479 12.583333,28 13,28 c 0.416667,0 0.766293,-0.237521 0.978516,-0.492188 0.212222,-0.254666 0.34375,-0.535156 0.46875,-0.785156 0.125,-0.25 0.243472,-0.46951 0.34375,-0.589844 C 14.891293,26.012479 14.916667,26 15,26 c 0.08333,0 0.108707,0.01248 0.208984,0.132812 0.100278,0.120334 0.21875,0.339844 0.34375,0.589844 0.125,0.25 0.256528,0.53049 0.46875,0.785156 C 16.233707,27.762479 16.583333,28 17,28 c 0.416667,0 0.766293,-0.237521 0.978516,-0.492188 0.212222,-0.254666 0.34375,-0.535156 0.46875,-0.785156 0.125,-0.25 0.243472,-0.46951 0.34375,-0.589844 C 18.891293,26.012479 18.916667,26 19,26 c 0.08333,0 0.108707,0.01248 0.208984,0.132812 0.100278,0.120334 0.21875,0.339844 0.34375,0.589844 0.125,0.25 0.256528,0.53049 0.46875,0.785156 C 20.233707,27.762479 20.583333,28 21,28 v -1 c -0.08333,0 -0.108707,-0.01248 -0.208984,-0.132812 -0.100278,-0.120334 -0.21875,-0.339844 -0.34375,-0.589844 -0.125,-0.25 -0.256528,-0.53049 -0.46875,-0.785156 C 19.766293,25.237521 19.416667,25 19,25 c -0.416667,0 -0.766293,0.237521 -0.978516,0.492188 -0.212222,0.254666 -0.34375,0.535156 -0.46875,0.785156 -0.125,0.25 -0.243472,0.46951 -0.34375,0.589844 C 17.108707,26.987521 17.083333,27 17,27 c -0.08333,0 -0.108707,-0.01248 -0.208984,-0.132812 -0.100278,-0.120334 -0.21875,-0.339844 -0.34375,-0.589844 -0.125,-0.25 -0.256528,-0.53049 -0.46875,-0.785156 C 15.766293,25.237521 15.416667,25 15,25 c -0.416667,0 -0.766293,0.237521 -0.978516,0.492188 -0.212222,0.254666 -0.34375,0.535156 -0.46875,0.785156 -0.125,0.25 -0.243472,0.46951 -0.34375,0.589844 C 13.108707,26.987521 13.083333,27 13,27 c -0.08333,0 -0.108707,-0.01248 -0.208984,-0.132812 -0.100278,-0.120334 -0.21875,-0.339844 -0.34375,-0.589844 -0.125,-0.25 -0.256528,-0.53049 -0.46875,-0.785156 C 11.766293,25.237521 11.416667,25 11,25 c -0.416667,0 -0.766292,0.237521 -0.978515,0.492188 -0.2122226,0.254666 -0.3437506,0.535156 -0.4687506,0.785156 -0.125,0.25 -0.243472,0.46951 -0.34375,0.589844 C 9.1087074,26.987521 9.083333,27 9,27 8.91667,27 8.8912926,26.98752 8.7910156,26.867188 c -0.100278,-0.120334 -0.21875,-0.339844 -0.34375,-0.589844 -0.125,-0.25 -0.256528,-0.53049 -0.46875,-0.785156 C 7.7662926,25.237521 7.416667,25 7,25 Z"
     id="path824"
     inkscape:connector-curvature="0" />
  <path
     inkscape:connector-curvature="0"
     id="path830"
     d="m 23,25 c -0.416667,0 -0.766293,0.237521 -0.978516,0.492188 -0.212222,0.254666 -0.34375,0.535156 -0.46875,0.785156 -0.125,0.25 -0.243472,0.46951 -0.34375,0.589844 C 21.108707,26.987521 21.083333,27 21,27 v 1 c 0.416667,0 0.766293,-0.237521 0.978516,-0.492188 0.212222,-0.254666 0.34375,-0.535156 0.46875,-0.785156 0.125,-0.25 0.243472,-0.46951 0.34375,-0.589844 C 22.891293,26.012479 22.916667,26 23,26 c 0.08333,0 0.108707,0.01248 0.208984,0.132812 0.100278,0.120334 0.21875,0.339844 0.34375,0.589844 0.125,0.25 0.256528,0.53049 0.46875,0.785156 C 24.233707,27.762479 24.583333,28 25,28 c 0.416667,0 0.766293,-0.237521 0.978516,-0.492188 0.212222,-0.254666 0.34375,-0.535156 0.46875,-0.785156 0.125,-0.25 0.243472,-0.46951 0.34375,-0.589844 C 26.891293,26.012479 26.916667,26 27,26 v -1 c -0.416667,0 -0.766292,0.237521 -0.978515,0.492188 -0.212223,0.254666 -0.343751,0.535156 -0.468751,0.785156 -0.125,0.25 -0.243472,0.46951 -0.34375,0.589844 C 25.108707,26.987521 25.083333,27 25,27 c -0.08333,0 -0.108707,-0.01248 -0.208984,-0.132812 -0.100278,-0.120334 -0.21875,-0.339844 -0.34375,-0.589844 -0.125,-0.25 -0.256528,-0.53049 -0.46875,-0.785156 C 23.766293,25.237521 23.416667,25 23,25 Z"
     style="color:#000000;font-style:normal;font-variant:normal;font-weight:normal;font-stretch:normal;font-size:medium;line-height:normal;font-family:sans-serif;font-variant-ligatures:normal;font-variant-position:normal;font-variant-caps:normal;font-variant-numeric:normal;font-variant-alternates:normal;font-feature-settings:normal;text-indent:0;text-align:start;text-decoration:none;text-decoration-line:none;text-decoration-style:solid;text-decoration-color:#000000;letter-spacing:normal;word-spacing:normal;text-transform:none;writing-mode:lr-tb;direction:ltr;text-orientation:mixed;dominant-baseline:auto;baseline-shift:baseline;text-anchor:start;white-space:normal;shape-padding:0;clip-rule:nonzero;display:inline;overflow:visible;visibility:visible;opacity:1;isolation:auto;mix-blend-mode:normal;color-interpolation:sRGB;color-interpolation-filters:linearRGB;solid-color:#000000;solid-opacity:1;vector-effect:none;fill:#c7162b;fill-opacity:1;fill-rule:nonzero;stroke:none;stroke-width:1px;stroke-linecap:butt;stroke-linejoin:miter;stroke-miterlimit:4;stroke-dasharray:none;stroke-dashoffset:0;stroke-opacity:1;color-rendering:auto;image-rendering:auto;shape-rendering:auto;text-rendering:auto;enable-background:accumulate"
     sodipodi:nodetypes="ssssccsssscsssssscccssscsss" />
</svg>

<?xml version="1.0" encoding="UTF-8" standalone="no"?>
<svg
   xmlns:dc="http://purl.org/dc/elements/1.1/"
   xmlns:cc="http://creativecommons.org/ns#"
   xmlns:rdf="http://www.w3.org/1999/02/22-rdf-syntax-ns#"
   xmlns:svg="http://www.w3.org/2000/svg"
   xmlns="http://www.w3.org/2000/svg"
   xmlns:sodipodi="http://sodipodi.sourceforge.net/DTD/sodipodi-0.dtd"
   xmlns:inkscape="http://www.inkscape.org/namespaces/inkscape"
   viewBox="0 0 32 32"
   version="1.1"
   id="svg6"
   sodipodi:docname="spelling.svg"
   inkscape:version="0.92.4 (5da689c313, 2019-01-14)"
   inkscape:export-filename="/home/jupiter007/Libreoffice yaru theme fullcolor/build/cmd/32/spelling.png"
   inkscape:export-xdpi="96"
   inkscape:export-ydpi="96">
  <metadata
     id="metadata12">
    <rdf:RDF>
      <cc:Work
         rdf:about="">
        <dc:format>image/svg+xml</dc:format>
        <dc:type
           rdf:resource="http://purl.org/dc/dcmitype/StillImage" />
      </cc:Work>
    </rdf:RDF>
  </metadata>
  <defs
     id="defs10" />
  <sodipodi:namedview
     pagecolor="#ffffff"
     bordercolor="#666666"
     borderopacity="1"
     objecttolerance="10"
     gridtolerance="10"
     guidetolerance="10"
     inkscape:pageopacity="0"
     inkscape:pageshadow="2"
     inkscape:window-width="1920"
     inkscape:window-height="1011"
     id="namedview8"
     showgrid="true"
     inkscape:zoom="29.5"
     inkscape:cx="9.6839524"
     inkscape:cy="16.283897"
     inkscape:window-x="1920"
     inkscape:window-y="32"
     inkscape:window-maximized="1"
     inkscape:current-layer="svg6">
    <inkscape:grid
       type="xygrid"
       id="grid822" />
  </sodipodi:namedview>
  <path
     style="fill:#ffffff;fill-opacity:1;stroke:none;stroke-width:1px;stroke-linecap:butt;stroke-linejoin:miter;stroke-opacity:1"
     d="M 16,5 5,26 H 27 L 16,5"
     id="path825"
     inkscape:connector-curvature="0"
     sodipodi:nodetypes="cccc" />
  <path
     sodipodi:nodetypes="cccccccccccscccs"
     style="fill:#ffffff;fill-opacity:1;stroke:#ffffff;stroke-opacity:1;stroke-width:2;stroke-miterlimit:4;stroke-dasharray:none"
     inkscape:connector-curvature="0"
     id="path820"
     d="M 15,3 6,23 h 2 l 3.392578,-7 H 16 20.607422 L 24,23 h 2 L 17,3 H 16 Z M 16,5.4023438 19.849609,14 H 16 12.150391 Z" />
  <path
     id="path822"
     d="M 7 25 C 6.583333 25 6.2337074 25.237521 6.0214844 25.492188 C 5.8092624 25.746854 5.6777344 26.027344 5.5527344 26.277344 C 5.4277344 26.527344 5.3092624 26.746854 5.2089844 26.867188 C 5.1087074 26.987521 5.083333 27 5 27 L 5 28 C 5.416667 28 5.7662926 27.762479 5.9785156 27.507812 C 6.1907376 27.253146 6.3222656 26.972656 6.4472656 26.722656 C 6.5722656 26.472656 6.6907376 26.253146 6.7910156 26.132812 C 6.8912926 26.012479 6.916667 26 7 26 C 7.08333 26 7.1087074 26.01248 7.2089844 26.132812 C 7.3092624 26.253146 7.4277344 26.472656 7.5527344 26.722656 C 7.6777344 26.972656 7.8092624 27.253146 8.0214844 27.507812 C 8.2337074 27.762479 8.583333 28 9 28 C 9.416667 28 9.7662926 27.762479 9.9785156 27.507812 C 10.190738 27.253146 10.322266 26.972656 10.447266 26.722656 C 10.572266 26.472656 10.690738 26.253146 10.791016 26.132812 C 10.891293 26.012479 10.916667 26 11 26 C 11.08333 26 11.108707 26.01248 11.208984 26.132812 C 11.309262 26.253146 11.427734 26.472656 11.552734 26.722656 C 11.677734 26.972656 11.809262 27.253146 12.021484 27.507812 C 12.233707 27.762479 12.583333 28 13 28 C 13.416667 28 13.766293 27.762479 13.978516 27.507812 C 14.190738 27.253146 14.322266 26.972656 14.447266 26.722656 C 14.572266 26.472656 14.690738 26.253146 14.791016 26.132812 C 14.891293 26.012479 14.916667 26 15 26 C 15.08333 26 15.108707 26.01248 15.208984 26.132812 C 15.309262 26.253146 15.427734 26.472656 15.552734 26.722656 C 15.677734 26.972656 15.809262 27.253146 16.021484 27.507812 C 16.233707 27.762479 16.583333 28 17 28 C 17.416667 28 17.766293 27.762479 17.978516 27.507812 C 18.190738 27.253146 18.322266 26.972656 18.447266 26.722656 C 18.572266 26.472656 18.690738 26.253146 18.791016 26.132812 C 18.891293 26.012479 18.916667 26 19 26 C 19.08333 26 19.108707 26.01248 19.208984 26.132812 C 19.309262 26.253146 19.427734 26.472656 19.552734 26.722656 C 19.677734 26.972656 19.809262 27.253146 20.021484 27.507812 C 20.233707 27.762479 20.583333 28 21 28 C 21.416667 28 21.766293 27.762479 21.978516 27.507812 C 22.190738 27.253146 22.322266 26.972656 22.447266 26.722656 C 22.572266 26.472656 22.690738 26.253146 22.791016 26.132812 C 22.891293 26.012479 22.916667 26 23 26 C 23.08333 26 23.108707 26.01248 23.208984 26.132812 C 23.309262 26.253146 23.427734 26.472656 23.552734 26.722656 C 23.677734 26.972656 23.809262 27.253146 24.021484 27.507812 C 24.233707 27.762479 24.583333 28 25 28 C 25.416667 28 25.766293 27.762479 25.978516 27.507812 C 26.190738 27.253146 26.322266 26.972656 26.447266 26.722656 C 26.572266 26.472656 26.690738 26.253146 26.791016 26.132812 C 26.891293 26.012479 26.916667 26 27 26 L 27 25 C 26.583333 25 26.233707 25.237521 26.021484 25.492188 C 25.809261 25.746854 25.677734 26.027344 25.552734 26.277344 C 25.427734 26.527344 25.309262 26.746854 25.208984 26.867188 C 25.108707 26.987521 25.083333 27 25 27 C 24.91667 27 24.891293 26.98752 24.791016 26.867188 C 24.690738 26.746854 24.572266 26.527344 24.447266 26.277344 C 24.322266 26.027344 24.190738 25.746854 23.978516 25.492188 C 23.766293 25.237521 23.416667 25 23 25 C 22.583333 25 22.233707 25.237521 22.021484 25.492188 C 21.809262 25.746854 21.677734 26.027344 21.552734 26.277344 C 21.427734 26.527344 21.309262 26.746854 21.208984 26.867188 C 21.108707 26.987521 21.083333 27 21 27 C 20.91667 27 20.891293 26.98752 20.791016 26.867188 C 20.690738 26.746854 20.572266 26.527344 20.447266 26.277344 C 20.322266 26.027344 20.190738 25.746854 19.978516 25.492188 C 19.766293 25.237521 19.416667 25 19 25 C 18.583333 25 18.233707 25.237521 18.021484 25.492188 C 17.809262 25.746854 17.677734 26.027344 17.552734 26.277344 C 17.427734 26.527344 17.309262 26.746854 17.208984 26.867188 C 17.108707 26.987521 17.083333 27 17 27 C 16.91667 27 16.891293 26.98752 16.791016 26.867188 C 16.690738 26.746854 16.572266 26.527344 16.447266 26.277344 C 16.322266 26.027344 16.190738 25.746854 15.978516 25.492188 C 15.766293 25.237521 15.416667 25 15 25 C 14.583333 25 14.233707 25.237521 14.021484 25.492188 C 13.809262 25.746854 13.677734 26.027344 13.552734 26.277344 C 13.427734 26.527344 13.309262 26.746854 13.208984 26.867188 C 13.108707 26.987521 13.083333 27 13 27 C 12.91667 27 12.891293 26.98752 12.791016 26.867188 C 12.690738 26.746854 12.572266 26.527344 12.447266 26.277344 C 12.322266 26.027344 12.190738 25.746854 11.978516 25.492188 C 11.766293 25.237521 11.416667 25 11 25 C 10.583333 25 10.233707 25.237521 10.021484 25.492188 C 9.8092618 25.746854 9.6777344 26.027344 9.5527344 26.277344 C 9.4277344 26.527344 9.3092624 26.746854 9.2089844 26.867188 C 9.1087074 26.987521 9.083333 27 9 27 C 8.91667 27 8.8912926 26.98752 8.7910156 26.867188 C 8.6907376 26.746854 8.5722656 26.527344 8.4472656 26.277344 C 8.3222656 26.027344 8.1907376 25.746854 7.9785156 25.492188 C 7.7662926 25.237521 7.416667 25 7 25 z "
     style="color:#000000;font-style:normal;font-variant:normal;font-weight:normal;font-stretch:normal;font-size:medium;line-height:normal;font-family:sans-serif;font-variant-ligatures:normal;font-variant-position:normal;font-variant-caps:normal;font-variant-numeric:normal;font-variant-alternates:normal;font-feature-settings:normal;text-indent:0;text-align:start;text-decoration:none;text-decoration-line:none;text-decoration-style:solid;text-decoration-color:#000000;letter-spacing:normal;word-spacing:normal;text-transform:none;writing-mode:lr-tb;direction:ltr;text-orientation:mixed;dominant-baseline:auto;baseline-shift:baseline;text-anchor:start;white-space:normal;shape-padding:0;clip-rule:nonzero;display:inline;overflow:visible;visibility:visible;opacity:1;isolation:auto;mix-blend-mode:normal;color-interpolation:sRGB;color-interpolation-filters:linearRGB;solid-color:#000000;solid-opacity:1;vector-effect:none;fill:#ffffff;fill-opacity:1;fill-rule:nonzero;stroke:#ffffff;stroke-width:2;stroke-linecap:butt;stroke-linejoin:miter;stroke-miterlimit:4;stroke-dasharray:none;stroke-dashoffset:0;stroke-opacity:1;color-rendering:auto;image-rendering:auto;shape-rendering:auto;text-rendering:auto;enable-background:accumulate" />
  <path
     d="M 15,3 6,23 h 2 l 3.392578,-7 H 16 20.607422 L 24,23 h 2 L 17,3 H 16 Z M 16,5.4023438 19.849609,14 H 16 12.150391 Z"
     id="path2"
     inkscape:connector-curvature="0"
     style="fill:#232629"
     sodipodi:nodetypes="cccccccccccscccs" />
  <path
     style="color:#000000;font-style:normal;font-variant:normal;font-weight:normal;font-stretch:normal;font-size:medium;line-height:normal;font-family:sans-serif;font-variant-ligatures:normal;font-variant-position:normal;font-variant-caps:normal;font-variant-numeric:normal;font-variant-alternates:normal;font-feature-settings:normal;text-indent:0;text-align:start;text-decoration:none;text-decoration-line:none;text-decoration-style:solid;text-decoration-color:#000000;letter-spacing:normal;word-spacing:normal;text-transform:none;writing-mode:lr-tb;direction:ltr;text-orientation:mixed;dominant-baseline:auto;baseline-shift:baseline;text-anchor:start;white-space:normal;shape-padding:0;clip-rule:nonzero;display:inline;overflow:visible;visibility:visible;opacity:1;isolation:auto;mix-blend-mode:normal;color-interpolation:sRGB;color-interpolation-filters:linearRGB;solid-color:#000000;solid-opacity:1;vector-effect:none;fill:#c7162b;fill-opacity:1;fill-rule:nonzero;stroke:none;stroke-width:1px;stroke-linecap:butt;stroke-linejoin:miter;stroke-miterlimit:4;stroke-dasharray:none;stroke-dashoffset:0;stroke-opacity:1;color-rendering:auto;image-rendering:auto;shape-rendering:auto;text-rendering:auto;enable-background:accumulate"
     d="M 7 25 C 6.583333 25 6.2337074 25.237521 6.0214844 25.492188 C 5.8092624 25.746854 5.6777344 26.027344 5.5527344 26.277344 C 5.4277344 26.527344 5.3092624 26.746854 5.2089844 26.867188 C 5.1087074 26.987521 5.083333 27 5 27 L 5 28 C 5.416667 28 5.7662926 27.762479 5.9785156 27.507812 C 6.1907376 27.253146 6.3222656 26.972656 6.4472656 26.722656 C 6.5722656 26.472656 6.6907376 26.253146 6.7910156 26.132812 C 6.8912926 26.012479 6.916667 26 7 26 C 7.08333 26 7.1087074 26.01248 7.2089844 26.132812 C 7.3092624 26.253146 7.4277344 26.472656 7.5527344 26.722656 C 7.6777344 26.972656 7.8092624 27.253146 8.0214844 27.507812 C 8.2337074 27.762479 8.583333 28 9 28 C 9.416667 28 9.7662926 27.762479 9.9785156 27.507812 C 10.190738 27.253146 10.322266 26.972656 10.447266 26.722656 C 10.572266 26.472656 10.690738 26.253146 10.791016 26.132812 C 10.891293 26.012479 10.916667 26 11 26 C 11.08333 26 11.108707 26.01248 11.208984 26.132812 C 11.309262 26.253146 11.427734 26.472656 11.552734 26.722656 C 11.677734 26.972656 11.809262 27.253146 12.021484 27.507812 C 12.233707 27.762479 12.583333 28 13 28 C 13.416667 28 13.766293 27.762479 13.978516 27.507812 C 14.190738 27.253146 14.322266 26.972656 14.447266 26.722656 C 14.572266 26.472656 14.690738 26.253146 14.791016 26.132812 C 14.891293 26.012479 14.916667 26 15 26 C 15.08333 26 15.108707 26.01248 15.208984 26.132812 C 15.309262 26.253146 15.427734 26.472656 15.552734 26.722656 C 15.677734 26.972656 15.809262 27.253146 16.021484 27.507812 C 16.233707 27.762479 16.583333 28 17 28 C 17.416667 28 17.766293 27.762479 17.978516 27.507812 C 18.190738 27.253146 18.322266 26.972656 18.447266 26.722656 C 18.572266 26.472656 18.690738 26.253146 18.791016 26.132812 C 18.891293 26.012479 18.916667 26 19 26 C 19.08333 26 19.108707 26.01248 19.208984 26.132812 C 19.309262 26.253146 19.427734 26.472656 19.552734 26.722656 C 19.677734 26.972656 19.809262 27.253146 20.021484 27.507812 C 20.233707 27.762479 20.583333 28 21 28 C 21.416667 28 21.766293 27.762479 21.978516 27.507812 C 22.190738 27.253146 22.322266 26.972656 22.447266 26.722656 C 22.572266 26.472656 22.690738 26.253146 22.791016 26.132812 C 22.891293 26.012479 22.916667 26 23 26 C 23.08333 26 23.108707 26.01248 23.208984 26.132812 C 23.309262 26.253146 23.427734 26.472656 23.552734 26.722656 C 23.677734 26.972656 23.809262 27.253146 24.021484 27.507812 C 24.233707 27.762479 24.583333 28 25 28 C 25.416667 28 25.766293 27.762479 25.978516 27.507812 C 26.190738 27.253146 26.322266 26.972656 26.447266 26.722656 C 26.572266 26.472656 26.690738 26.253146 26.791016 26.132812 C 26.891293 26.012479 26.916667 26 27 26 L 27 25 C 26.583333 25 26.233707 25.237521 26.021484 25.492188 C 25.809261 25.746854 25.677734 26.027344 25.552734 26.277344 C 25.427734 26.527344 25.309262 26.746854 25.208984 26.867188 C 25.108707 26.987521 25.083333 27 25 27 C 24.91667 27 24.891293 26.98752 24.791016 26.867188 C 24.690738 26.746854 24.572266 26.527344 24.447266 26.277344 C 24.322266 26.027344 24.190738 25.746854 23.978516 25.492188 C 23.766293 25.237521 23.416667 25 23 25 C 22.583333 25 22.233707 25.237521 22.021484 25.492188 C 21.809262 25.746854 21.677734 26.027344 21.552734 26.277344 C 21.427734 26.527344 21.309262 26.746854 21.208984 26.867188 C 21.108707 26.987521 21.083333 27 21 27 C 20.91667 27 20.891293 26.98752 20.791016 26.867188 C 20.690738 26.746854 20.572266 26.527344 20.447266 26.277344 C 20.322266 26.027344 20.190738 25.746854 19.978516 25.492188 C 19.766293 25.237521 19.416667 25 19 25 C 18.583333 25 18.233707 25.237521 18.021484 25.492188 C 17.809262 25.746854 17.677734 26.027344 17.552734 26.277344 C 17.427734 26.527344 17.309262 26.746854 17.208984 26.867188 C 17.108707 26.987521 17.083333 27 17 27 C 16.91667 27 16.891293 26.98752 16.791016 26.867188 C 16.690738 26.746854 16.572266 26.527344 16.447266 26.277344 C 16.322266 26.027344 16.190738 25.746854 15.978516 25.492188 C 15.766293 25.237521 15.416667 25 15 25 C 14.583333 25 14.233707 25.237521 14.021484 25.492188 C 13.809262 25.746854 13.677734 26.027344 13.552734 26.277344 C 13.427734 26.527344 13.309262 26.746854 13.208984 26.867188 C 13.108707 26.987521 13.083333 27 13 27 C 12.91667 27 12.891293 26.98752 12.791016 26.867188 C 12.690738 26.746854 12.572266 26.527344 12.447266 26.277344 C 12.322266 26.027344 12.190738 25.746854 11.978516 25.492188 C 11.766293 25.237521 11.416667 25 11 25 C 10.583333 25 10.233707 25.237521 10.021484 25.492188 C 9.8092618 25.746854 9.6777344 26.027344 9.5527344 26.277344 C 9.4277344 26.527344 9.3092624 26.746854 9.2089844 26.867188 C 9.1087074 26.987521 9.083333 27 9 27 C 8.91667 27 8.8912926 26.98752 8.7910156 26.867188 C 8.6907376 26.746854 8.5722656 26.527344 8.4472656 26.277344 C 8.3222656 26.027344 8.1907376 25.746854 7.9785156 25.492188 C 7.7662926 25.237521 7.416667 25 7 25 z "
     id="path824" />
</svg>
